symbolic/22x22/apps/akira.svg

<svg xmlns="http://www.w3.org/2000/svg" width="22" height="22" version="1.1">
 <path style="opacity:0.2" d="m 11,1.5 a 10,10 0 0 0 -10,10 10,10 0 0 0 10,10 10,10 0 0 0 10,-10 10,10 0 0 0 -10,-10 z"/>
 <path style="fill:#4f4f4f" d="M 11,1 A 10,10 0 0 0 1,11 10,10 0 0 0 11,21 10,10 0 0 0 21,11 10,10 0 0 0 11,1 Z"/>
 <path style="opacity:0.2;fill-rule:evenodd" d="M 10.310103,5.5679675 C 10.325053,5.5271475 10.351906,5.5 10.382497,5.5 c 0.02272,0 0.04347,0.01515 0.05872,0.03974 L 11,6 h 0.5 l 0.417417,-0.4602515 c 0.01525,-0.02459 0.036,-0.03974 0.05882,-0.03974 0.03059,0 0.05734,0.027145 0.0723,0.067967 l -1.88e-4,-0.001 4.618138,11.4823455 c 0.02508,0.05616 0.01505,0.07377 -0.05026,0.03069 L 9.824209,12.974906 5.6590215,17.129962 c 0,0 4.6472535,-11.5515915 4.6510895,-11.5620175 z"/>
 <path style="opacity:0.1;fill:#ffffff" d="M 11,1 A 10,10 0 0 0 1.0705,9.926 10,9.5 0 0 1 11,1.5 10,9.5 0 0 1 20.961,10.2235 10,10 0 0 0 11,1 Z m 9.961,9.2235 A 10,10 0 0 1 21,11 10,9.5 0 0 0 20.961,10.2235 Z M 1.0705,9.926 A 10,9.5 0 0 0 1.0461,10.122 10,10 0 0 1 1.0705,9.926 Z M 1.0461,10.122 A 10,10 0 0 0 1.0002,11 10,9.5 0 0 1 1.0461,10.122 Z"/>
 <path style="fill:#f07800;fill-rule:evenodd" d="m 7.7732795,10.883753 c 0,-0.07911 0.1354425,-0.143253 0.3058035,-0.143253 0.00885,0 0.017605,9.6e-5 0.02636,4.81e-4 0.00699,2.82e-4 0.2330165,0 0.2330165,0 L 7.931639,11.805521 7.4764255,11.632816 c 0,0 0.296853,-0.669948 0.296853,-0.749058 z"/>
 <path style="fill:#ff8f13;fill-rule:evenodd" d="m 10.375709,5 c 0,0 0.456932,0.3633585 0.624291,0.5 h 0.5 C 11.638711,5.3259475 11.983024,5 11.983024,5 c 0,0 3.301202,8.112524 4.683458,11.549321 0.02508,0.05616 0.01505,0.07377 -0.05026,0.03069 L 9.824203,12.474906 5.6590155,16.629962 Z"/>
 <path style="opacity:0.2;fill-rule:evenodd" d="m 8.079083,11.504618 h 7.235519 c 0.04771,-1.83e-4 0.04495,0.01516 -4.96e-4,0.04355 l -9.9340435,5.932978 c -0.060295,0.03575 -0.074066,0.02039 -0.043375,-0.04375 l 2.436594,-6.085564 c 0,0 -0.02272,0.138774 0.3058035,0.152785 z"/>
 <path style="fill:#ffc30e;fill-rule:evenodd" d="m 8.079083,11.004618 h 7.235519 c 0.04771,-1.83e-4 0.04495,0.01516 -4.96e-4,0.04355 l -9.9340435,5.932978 c -0.060295,0.03575 -0.074066,0.02039 -0.043375,-0.04375 l 2.436594,-6.085564 c 0,0 -0.02272,0.138774 0.3058035,0.152785 z"/>
 <path style="opacity:0.2;fill-rule:evenodd" d="m 11.983024,5.5 h -1.607315 l 0.793379,1 z"/>
 <path style="fill:#ffc30e;fill-rule:evenodd" d="m 11.983024,5 h -1.607315 l 0.793379,1 z"/>
 <path style="opacity:0.2;fill:#ffffff;fill-rule:evenodd" d="M 7.7734375,10.851563 5.336914,16.9375 c -0.03069,0.06414 -0.017325,0.07969 0.04297,0.04395 l 0.1835935,-0.109375 2.209961,-5.520508 c 0,0 -0.02286,0.13931 0.305664,0.153321 h 6.4697265 l 0.765625,-0.457032 c 0.04544,-0.02839 0.0477,-0.04315 0,-0.04297 H 8.0791015 c -0.3285235,-0.01401 -0.305664,-0.15332 -0.305664,-0.15332 z"/>
</svg>

<svg xmlns="http://www.w3.org/2000/svg" width="22" height="22"><path style="opacity:.2" d="M11 1.5a10 10 0 0 0-10 10 10 10 0 0 0 10 10 10 10 0 0 0 10-10 10 10 0 0 0-10-10z"/><path style="fill:#4f4f4f" d="M11 1A10 10 0 0 0 1 11a10 10 0 0 0 10 10 10 10 0 0 0 10-10A10 10 0 0 0 11 1z"/><path style="opacity:.2;fill-rule:evenodd" d="M10.31 5.568c.015-.04.042-.068.072-.068.023 0 .044.015.06.04L11 6h.5l.417-.46c.016-.025.036-.04.06-.04.03 0 .057.027.072.068v-.001l4.617 11.482c.026.056.016.074-.05.031l-6.792-4.105L5.66 17.13 10.31 5.568z"/><path style="opacity:.1;fill:#fff" d="M11 1a10 10 0 0 0-9.93 8.926A10 9.5 0 0 1 11 1.5a10 9.5 0 0 1 9.961 8.723A10 10 0 0 0 11 1zm9.961 9.223A10 10 0 0 1 21 11a10 9.5 0 0 0-.039-.777zm-19.89-.297a10 9.5 0 0 0-.025.196 10 10 0 0 1 .024-.196zm-.025.196A10 10 0 0 0 1 11a10 9.5 0 0 1 .046-.878z"/><path style="fill:#f07800;fill-rule:evenodd" d="M7.773 10.884c0-.08.136-.143.306-.143a.6.6 0 0 1 .026 0h.233l-.406 1.065-.456-.173s.297-.67.297-.75z"/><path style="fill:#ff8f13;fill-rule:evenodd" d="M10.376 5s.457.363.624.5h.5c.139-.174.483-.5.483-.5s3.301 8.113 4.683 11.55c.026.055.016.073-.05.03l-6.792-4.105L5.66 16.63z"/><path style="opacity:.2;fill-rule:evenodd" d="M8.08 11.505h7.235c.047 0 .045.015 0 .043L5.38 17.481c-.06.036-.074.02-.043-.044l2.436-6.085s-.022.139.306.153z"/><path style="fill:#ffc30e;fill-rule:evenodd" d="M8.08 11.005h7.235c.047 0 .045.015 0 .043L5.38 16.981c-.06.036-.074.02-.043-.044l2.436-6.085s-.022.139.306.153z"/><path style="opacity:.2;fill-rule:evenodd" d="M11.983 5.5h-1.607l.793 1z"/><path style="fill:#ffc30e;fill-rule:evenodd" d="M11.983 5h-1.607l.793 1z"/><path style="opacity:.2;fill:#fff;fill-rule:evenodd" d="m7.773 10.852-2.436 6.085c-.03.065-.017.08.043.044l.183-.109 2.21-5.52s-.022.139.306.153h6.47l.765-.457c.046-.029.048-.043 0-.043H8.08c-.328-.014-.306-.153-.306-.153z"/></svg>
